img/linkedin-bw.svg

<?xml version="1.0" encoding="UTF-8" standalone="no"?>
<!-- Created with Inkscape (http://www.inkscape.org/) -->

<svg
   xmlns:dc="http://purl.org/dc/elements/1.1/"
   xmlns:cc="http://creativecommons.org/ns#"
   xmlns:rdf="http://www.w3.org/1999/02/22-rdf-syntax-ns#"
   xmlns:svg="http://www.w3.org/2000/svg"
   xmlns="http://www.w3.org/2000/svg"
   version="1.1"
   width="32"
   height="32">
  <path
      d="M 0,0 0,32 32,32 32,0 0,0 z m 7.125,4.40625 c 1.517363,0 2.75,1.2319262 2.75,2.75 0,1.5195562 -1.232637,2.75 -2.75,2.75 -1.5214074,0 -2.75,-1.2304437 -2.75,-2.75 0,-1.5180737 1.2285926,-2.75 2.75,-2.75 z M 21.5625,11.625 c 4.802666,0 5.71875,3.167916 5.71875,7.28125 l 0,8.375 -4.75,0 0,-7.4375 c 0,-1.771986 -0.03645,-4.0625 -2.46875,-4.0625 -2.469778,0 -2.84375,1.945663 -2.84375,3.9375 l 0,7.5625 -4.75,0 0,-15.28125 4.5625,0 0,2.09375 0.0625,0 C 17.727528,12.893603 19.253463,11.625 21.5625,11.625 z M 4.75,12 l 4.75,0 0,15.28125 -4.75,0 L 4.75,12 z"
      style="fill:#222222;fill-opacity:1;fill-rule:nonzero;stroke:none" />
</svg>

<?xml version="1.0" encoding="UTF-8" standalone="no"?>
<!-- Created with Inkscape (http://www.inkscape.org/) -->

<svg
   xmlns:dc="http://purl.org/dc/elements/1.1/"
   xmlns:cc="http://creativecommons.org/ns#"
   xmlns:rdf="http://www.w3.org/1999/02/22-rdf-syntax-ns#"
   xmlns:svg="http://www.w3.org/2000/svg"
   xmlns="http://www.w3.org/2000/svg"
   xmlns:sodipodi="http://sodipodi.sourceforge.net/DTD/sodipodi-0.dtd"
   xmlns:inkscape="http://www.inkscape.org/namespaces/inkscape"
   id="svg3004"
   version="1.1"
   inkscape:version="0.48.4 r9939"
   width="32"
   height="32"
   xml:space="preserve"
   sodipodi:docname="linkedin_gray.svg"><metadata
     id="metadata3010"><rdf:RDF><cc:Work
         rdf:about=""><dc:format>image/svg+xml</dc:format><dc:type
           rdf:resource="http://purl.org/dc/dcmitype/StillImage" /><dc:title></dc:title></cc:Work></rdf:RDF></metadata><defs
     id="defs3008" /><sodipodi:namedview
     pagecolor="#ffffff"
     bordercolor="#666666"
     borderopacity="1"
     objecttolerance="10"
     gridtolerance="10"
     guidetolerance="10"
     inkscape:pageopacity="0"
     inkscape:pageshadow="2"
     inkscape:window-width="1855"
     inkscape:window-height="1056"
     id="namedview3006"
     showgrid="false"
     fit-margin-top="0"
     fit-margin-left="0"
     fit-margin-right="0"
     fit-margin-bottom="0"
     inkscape:zoom="21.788275"
     inkscape:cx="13.873607"
     inkscape:cy="14.310822"
     inkscape:window-x="65"
     inkscape:window-y="24"
     inkscape:window-maximized="1"
     inkscape:current-layer="g3012" /><g
     id="g3012"
     inkscape:groupmode="layer"
     inkscape:label="ink_ext_XXXXXX"
     transform="matrix(1.25,0,0,-1.25,0,32)"><path
       style="fill:#222222;fill-opacity:1;fill-rule:nonzero;stroke:none"
       d="M 0 0 L 0 32 L 32 32 L 32 0 L 0 0 z M 7.125 4.40625 C 8.642363 4.40625 9.875 5.6381762 9.875 7.15625 C 9.875 8.6758062 8.642363 9.90625 7.125 9.90625 C 5.6035926 9.90625 4.375 8.6758063 4.375 7.15625 C 4.375 5.6381763 5.6035926 4.40625 7.125 4.40625 z M 21.5625 11.625 C 26.365166 11.625 27.28125 14.792916 27.28125 18.90625 L 27.28125 27.28125 L 22.53125 27.28125 L 22.53125 19.84375 C 22.53125 18.071764 22.494799 15.78125 20.0625 15.78125 C 17.592722 15.78125 17.21875 17.726913 17.21875 19.71875 L 17.21875 27.28125 L 12.46875 27.28125 L 12.46875 12 L 17.03125 12 L 17.03125 14.09375 L 17.09375 14.09375 C 17.727528 12.893603 19.253463 11.625 21.5625 11.625 z M 4.75 12 L 9.5 12 L 9.5 27.28125 L 4.75 27.28125 L 4.75 12 z "
       id="rect3031"
       transform="matrix(0.8,0,0,-0.8,0,25.6)" /></g></svg>
